img/params.svg

<svg xmlns="http://www.w3.org/2000/svg" preserveAspectRatio="xMidYMid" width="32" height="32" xmlns:v="https://vecta.io/nano"><path d="M30 13.976V29c0 1.655-1.346 3-3 3s-3-1.345-3-3V13.976c-1.208-.912-2-2.346-2-3.976s.792-3.066 2-3.98V3c0-1.655 1.346-3 3-3s3 1.345 3 3v3.02c1.208.913 2 2.348 2 3.98s-.792 3.064-2 3.976zM26 29a1 1 0 1 0 2 0V14.897c-.323.068-.657.102-1 .102s-.677-.034-1-.102V29zm2-26a1 1 0 1 0-2 0v2.1a5.06 5.06 0 0 1 2 0V3zm1.865 6.158L29.816 9c-.094-.263-.217-.513-.377-.738-.004-.006-.01-.01-.014-.015-.174-.237-.38-.45-.616-.627-.25-.19-.52-.334-.81-.438a2.97 2.97 0 0 0-1-.184c-.353 0-.686.072-1 .184-.29.104-.558.25-.8.43a3.06 3.06 0 0 0-.626.635c-.004.005-.01.01-.014.015a2.99 2.99 0 0 0-.377.738c-.02.05-.034.103-.05.157A2.92 2.92 0 0 0 24 10c0 .293.055.57.135.838l.05.16c.094.264.216.514.377.736.004.006.01.01.014.016a2.98 2.98 0 0 0 .616.627 3 3 0 0 0 .809.438c.314.113.647.185 1 .185s.685-.072 1-.185a2.99 2.99 0 0 0 .799-.43 3.01 3.01 0 0 0 .626-.635c.004-.006.01-.01.014-.016a2.94 2.94 0 0 0 .377-.736c.02-.052.034-.105.05-.16.08-.267.135-.545.135-.838a2.92 2.92 0 0 0-.135-.842zM19 25.976V29c0 1.655-1.346 3-3 3s-3-1.345-3-3v-3.023A4.97 4.97 0 0 1 11 22c0-1.63.792-3.066 2-3.98V3c0-1.655 1.346-3 3-3s3 1.345 3 3v15.02c1.208.913 2 2.348 2 3.98a4.97 4.97 0 0 1-2 3.976zM15 29a1 1 0 1 0 2 0v-2.1a4.99 4.99 0 0 1-2 0V29zm2-26a1 1 0 1 0-2 0v14.1a5.14 5.14 0 0 1 1-.1 5.14 5.14 0 0 1 1 .1V3zm1.865 18.157l-.05-.156a2.99 2.99 0 0 0-.377-.738c-.004-.006-.01-.01-.014-.015-.174-.237-.38-.45-.616-.627a3.07 3.07 0 0 0-.809-.438 2.99 2.99 0 0 0-1-.184 2.99 2.99 0 0 0-1 .184c-.29.103-.558.25-.8.43a3.06 3.06 0 0 0-.626.635c-.004.005-.01.01-.014.015a2.99 2.99 0 0 0-.377.738c-.02.05-.034.104-.05.156-.08.268-.135.547-.135.843s.055.57.135.84l.05.158c.094.265.216.514.377.737.004.005.01.01.014.015a3 3 0 0 0 .616.627c.25.2.52.336.81.437a2.92 2.92 0 0 0 1 .186 2.92 2.92 0 0 0 1-.186c.29-.1.557-.247.8-.43s.452-.396.626-.635c.004-.005.01-.01.014-.015.16-.223.283-.472.377-.737l.05-.158c.08-.268.135-.547.135-.84s-.055-.575-.135-.843zM8 13.976V29c0 1.655-1.346 3-3 3s-3-1.345-3-3V13.976C.792 13.064 0 11.63 0 10s.792-3.066 2-3.98V3c0-1.655 1.346-3 3-3s3 1.345 3 3v3.02c1.208.913 2 2.348 2 3.98s-.792 3.064-2 3.976zM4 29a1 1 0 1 0 2 0V14.897c-.323.068-.657.102-1 .102s-.677-.034-1-.102V29zM6 3a1 1 0 1 0-2 0v2.1a5.06 5.06 0 0 1 2 0V3zm1.865 6.158L7.816 9a2.96 2.96 0 0 0-.378-.738 3.12 3.12 0 0 0-.629-.642c-.25-.19-.52-.334-.81-.438a2.97 2.97 0 0 0-1-.184c-.352 0-.686.072-1 .184-.29.104-.558.25-.8.43a3.06 3.06 0 0 0-.626.635c-.004.005-.01.01-.014.015a2.99 2.99 0 0 0-.377.738c-.02.05-.034.103-.05.157A2.92 2.92 0 0 0 2 10c0 .293.055.57.135.838l.05.16c.094.264.216.514.377.736.004.006.01.01.014.016a2.98 2.98 0 0 0 .616.627 3 3 0 0 0 .809.438c.314.113.648.185 1 .185s.685-.072 1-.185a2.99 2.99 0 0 0 .799-.43 3.01 3.01 0 0 0 .626-.635c.004-.006.01-.01.013-.016a2.88 2.88 0 0 0 .378-.736c.02-.052.034-.105.05-.16.08-.267.135-.545.135-.838a2.92 2.92 0 0 0-.135-.842z" fill="#0d0d0d" fill-rule="evenodd"/></svg>

<svg xmlns="http://www.w3.org/2000/svg" xmlns:xlink="http://www.w3.org/1999/xlink" preserveAspectRatio="xMidYMid" width="32" height="32" viewBox="0 0 32 32">
  <defs>
    <style>
      .cls-1 {
        fill: #0d0d0d;
        fill-rule: evenodd;
      }
    </style>
  </defs>
  <path d="M30.000,13.976 L30.000,28.999 C30.000,30.654 28.654,31.999 27.000,31.999 C25.346,31.999 24.000,30.654 24.000,28.999 L24.000,13.976 C22.792,13.064 22.000,11.630 22.000,10.000 C22.000,8.369 22.792,6.934 24.000,6.021 L24.000,3.000 C24.000,1.345 25.346,-0.000 27.000,-0.000 C28.654,-0.000 30.000,1.345 30.000,3.000 L30.000,6.021 C31.208,6.934 32.000,8.369 32.000,10.000 C32.000,11.630 31.208,13.064 30.000,13.976 ZM26.000,28.999 C26.000,29.552 26.447,29.999 27.000,29.999 C27.553,29.999 28.000,29.552 28.000,28.999 L28.000,14.897 C27.677,14.965 27.343,14.999 27.000,14.999 C26.657,14.999 26.323,14.965 26.000,14.897 L26.000,28.999 ZM28.000,3.000 C28.000,2.447 27.553,2.000 27.000,2.000 C26.447,2.000 26.000,2.447 26.000,3.000 L26.000,5.099 C26.323,5.034 26.657,4.999 27.000,4.999 C27.343,4.999 27.677,5.034 28.000,5.099 L28.000,3.000 ZM29.865,9.158 C29.850,9.104 29.835,9.052 29.816,9.001 C29.722,8.738 29.599,8.488 29.439,8.263 C29.435,8.257 29.429,8.253 29.425,8.248 C29.251,8.011 29.044,7.798 28.809,7.621 C28.805,7.618 28.802,7.614 28.799,7.613 C28.558,7.432 28.289,7.287 28.000,7.183 C27.685,7.071 27.352,6.999 27.000,6.999 C26.647,6.999 26.314,7.071 26.000,7.183 C25.711,7.287 25.442,7.432 25.201,7.613 C25.198,7.614 25.195,7.618 25.191,7.621 C24.956,7.798 24.749,8.011 24.575,8.248 C24.571,8.253 24.565,8.257 24.561,8.263 C24.400,8.488 24.278,8.738 24.184,9.001 C24.165,9.052 24.150,9.104 24.135,9.158 C24.055,9.426 24.000,9.704 24.000,10.000 C24.000,10.293 24.055,10.571 24.135,10.838 C24.150,10.892 24.165,10.945 24.184,10.997 C24.278,11.261 24.400,11.511 24.561,11.733 C24.565,11.739 24.571,11.743 24.575,11.749 C24.749,11.988 24.956,12.199 25.191,12.376 C25.195,12.380 25.198,12.382 25.201,12.384 C25.442,12.566 25.711,12.711 26.000,12.814 C26.314,12.927 26.647,12.999 27.000,12.999 C27.352,12.999 27.685,12.927 28.000,12.814 C28.289,12.711 28.558,12.566 28.799,12.384 C28.802,12.382 28.805,12.380 28.809,12.376 C29.044,12.199 29.251,11.988 29.425,11.749 C29.429,11.743 29.435,11.739 29.439,11.733 C29.599,11.511 29.722,11.261 29.816,10.997 C29.835,10.945 29.850,10.892 29.865,10.838 C29.945,10.571 30.000,10.293 30.000,10.000 C30.000,9.704 29.945,9.426 29.865,9.158 ZM19.000,25.976 L19.000,28.999 C19.000,30.654 17.654,31.999 16.000,31.999 C14.346,31.999 13.000,30.654 13.000,28.999 L13.000,25.976 C11.792,25.064 11.000,23.631 11.000,22.000 C11.000,20.369 11.792,18.934 13.000,18.021 L13.000,3.000 C13.000,1.345 14.346,-0.000 16.000,-0.000 C17.654,-0.000 19.000,1.345 19.000,3.000 L19.000,18.021 C20.208,18.934 21.000,20.369 21.000,22.000 C21.000,23.631 20.208,25.064 19.000,25.976 ZM15.000,28.999 C15.000,29.552 15.447,29.999 16.000,29.999 C16.553,29.999 17.000,29.552 17.000,28.999 L17.000,26.898 C16.677,26.964 16.343,26.999 16.000,26.999 C15.657,26.999 15.323,26.964 15.000,26.898 L15.000,28.999 ZM17.000,3.000 C17.000,2.447 16.553,2.000 16.000,2.000 C15.447,2.000 15.000,2.447 15.000,3.000 L15.000,17.099 C15.323,17.035 15.657,16.999 16.000,16.999 C16.343,16.999 16.677,17.035 17.000,17.099 L17.000,3.000 ZM18.865,21.157 C18.850,21.105 18.835,21.051 18.816,21.001 C18.722,20.738 18.600,20.488 18.439,20.263 C18.435,20.257 18.429,20.253 18.425,20.248 C18.251,20.011 18.044,19.798 17.809,19.621 C17.805,19.618 17.802,19.615 17.799,19.613 C17.557,19.433 17.289,19.286 17.000,19.183 C16.685,19.072 16.353,18.999 16.000,18.999 C15.647,18.999 15.315,19.072 15.000,19.183 C14.711,19.286 14.442,19.433 14.201,19.613 C14.198,19.615 14.195,19.618 14.191,19.621 C13.956,19.798 13.749,20.011 13.575,20.248 C13.571,20.253 13.565,20.257 13.561,20.263 C13.400,20.488 13.278,20.738 13.184,21.001 C13.165,21.051 13.150,21.105 13.135,21.157 C13.055,21.425 13.000,21.704 13.000,22.000 C13.000,22.292 13.055,22.571 13.135,22.839 C13.150,22.893 13.165,22.944 13.184,22.997 C13.278,23.262 13.400,23.511 13.561,23.734 C13.565,23.739 13.571,23.744 13.575,23.749 C13.749,23.988 13.956,24.198 14.191,24.376 C14.195,24.380 14.198,24.383 14.201,24.384 C14.442,24.566 14.711,24.712 15.000,24.813 C15.315,24.927 15.647,24.999 16.000,24.999 C16.353,24.999 16.685,24.927 17.000,24.813 C17.289,24.712 17.557,24.566 17.799,24.384 C17.802,24.383 17.805,24.380 17.809,24.376 C18.044,24.198 18.251,23.988 18.425,23.749 C18.429,23.744 18.435,23.739 18.439,23.734 C18.600,23.511 18.722,23.262 18.816,22.997 C18.835,22.944 18.850,22.893 18.865,22.839 C18.945,22.571 19.000,22.292 19.000,22.000 C19.000,21.704 18.945,21.425 18.865,21.157 ZM8.000,13.976 L8.000,28.999 C8.000,30.654 6.654,31.999 5.000,31.999 C3.346,31.999 2.000,30.654 2.000,28.999 L2.000,13.976 C0.792,13.064 -0.000,11.630 -0.000,10.000 C-0.000,8.369 0.792,6.934 2.000,6.021 L2.000,3.000 C2.000,1.345 3.346,-0.000 5.000,-0.000 C6.654,-0.000 8.000,1.345 8.000,3.000 L8.000,6.021 C9.208,6.934 10.000,8.369 10.000,10.000 C10.000,11.630 9.208,13.064 8.000,13.976 ZM4.000,28.999 C4.000,29.552 4.447,29.999 5.000,29.999 C5.553,29.999 6.000,29.552 6.000,28.999 L6.000,14.897 C5.677,14.965 5.343,14.999 5.000,14.999 C4.657,14.999 4.323,14.965 4.000,14.897 L4.000,28.999 ZM6.000,3.000 C6.000,2.447 5.553,2.000 5.000,2.000 C4.447,2.000 4.000,2.447 4.000,3.000 L4.000,5.099 C4.323,5.034 4.657,4.999 5.000,4.999 C5.343,4.999 5.677,5.034 6.000,5.099 L6.000,3.000 ZM7.865,9.158 C7.850,9.104 7.835,9.052 7.816,9.001 C7.722,8.738 7.600,8.488 7.438,8.263 C7.435,8.257 7.429,8.253 7.425,8.248 C7.251,8.011 7.044,7.798 6.809,7.621 C6.805,7.618 6.802,7.614 6.799,7.613 C6.558,7.432 6.289,7.287 6.000,7.183 C5.685,7.071 5.352,6.999 5.000,6.999 C4.648,6.999 4.314,7.071 4.000,7.183 C3.711,7.287 3.442,7.432 3.201,7.613 C3.198,7.614 3.195,7.618 3.191,7.621 C2.956,7.798 2.749,8.011 2.575,8.248 C2.571,8.253 2.565,8.257 2.561,8.263 C2.400,8.488 2.278,8.738 2.184,9.001 C2.165,9.052 2.150,9.104 2.135,9.158 C2.055,9.426 2.000,9.704 2.000,10.000 C2.000,10.293 2.055,10.571 2.135,10.838 C2.150,10.892 2.165,10.945 2.184,10.997 C2.278,11.261 2.400,11.511 2.561,11.733 C2.565,11.739 2.571,11.743 2.575,11.749 C2.749,11.988 2.956,12.199 3.191,12.376 C3.195,12.380 3.198,12.382 3.201,12.384 C3.442,12.566 3.711,12.711 4.000,12.814 C4.314,12.927 4.648,12.999 5.000,12.999 C5.352,12.999 5.685,12.927 6.000,12.814 C6.289,12.711 6.558,12.566 6.799,12.384 C6.802,12.382 6.805,12.380 6.809,12.376 C7.044,12.199 7.251,11.988 7.425,11.749 C7.429,11.743 7.435,11.739 7.438,11.733 C7.600,11.511 7.722,11.261 7.816,10.997 C7.835,10.945 7.850,10.892 7.865,10.838 C7.945,10.571 8.000,10.293 8.000,10.000 C8.000,9.704 7.945,9.426 7.865,9.158 Z" class="cls-1"/>
</svg>
